svgs/sharp-regular/shirt-running.svg

<svg xmlns="http://www.w3.org/2000/svg" viewBox="0 0 384 512"><!--! Font Awesome Pro 6.6.0 by @fontawesome - https://fontawesome.com License - https://fontawesome.com/license (Commercial License) Copyright 2024 Fonticons, Inc. --><path d="M192 152c-44.2 0-80-35.8-80-80l0-48 0-24L64 0l0 24 0 48 0 50.3L2.5 245.3 0 250.3 0 256 0 488l0 24 24 0 336 0 24 0 0-24 0-232 0-5.7-2.5-5.1L320 122.3 320 72l0-48 0-24L272 0l0 24 0 48c0 44.2-35.8 80-80 80zm24 45.8c27-5.1 51-18.7 69.1-37.9l22 43.9c-.4 .2-.7 .5-1.1 .8L48 390.8l0-129.2L98.9 159.9C122.2 184.6 155.3 200 192 200l24 0 0-2.2zM48 450L328.8 247.3l7.2 14.4L336 464 48 464l0-14z"/></svg>

<svg xmlns="http://www.w3.org/2000/svg" viewBox="0 0 384 512"><!--! Font Awesome Pro 6.4.0 by @fontawesome - https://fontawesome.com License - https://fontawesome.com/license (Commercial License) Copyright 2023 Fonticons, Inc. --><path d="M192 152c-44.2 0-80-35.8-80-80V24 0H64V24 72v50.3L2.5 245.3 0 250.3V256 488v24H24 360h24V488 256v-5.7l-2.5-5.1L320 122.3V72 24 0H272V24 72c0 44.2-35.8 80-80 80zm0 48c36.7 0 69.8-15.4 93.1-40.1l22 43.9c-.4 .2-.7 .5-1.1 .8L48 390.8V261.7L98.9 159.9C122.2 184.6 155.3 200 192 200zM48 450L328.8 247.3l7.2 14.4V464H48V450z"/></svg>
